!!!!SEGMENT: pl-wtm--r-759-m--002_moniuszko-stanislaw--studia-berlinskie-iii-arietta.krn
!!!cenid: 18xx:2878
!!!COM: Moniuszko, Stanisław
!!!COM-rismid: pe30008351
!!!CDT: 1819/05/05-1872/06/04
!!!CNT: Polish
!!!GTL: Studia berlińskie III
!!!OTL: Arietta
!!!PDT:
!!!AGN:
!!!SMS-siglum: PL-Wtm
!!!SMS-shelfmark: R 759/M
!!!SMS-shelfwork: 002 G
!!!SMS-variant:
!!!SMS-altvar:
!!!NIFC-rismid: 1001097413
!!!URL-scan: http://repozytorium.nifc.pl/skany/pl-wtm-nut--r759m
!!!ONB-nifc: UWAGA: od skanu 0035
**kern	**dynam	**kern	**text	**kern	**dynam	**kern	**dynam	**kern	**dynam	**kern	**dynam	**kern	**dynam	**kern	**dynam
*part8	*part8	*part7	*part7	*part6	*part6	*part5	*part5	*part4	*part4	*part3	*part3	*part2	*part2	*part1	*part1
*staff8	*	*staff7	*staff7	*staff6	*	*staff5	*	*staff4	*	*staff3	*	*staff2	*	*staff1	*
*Icello	*	*Iempty	*	*Iviola	*	*Ivioln	*	*Ivioln	*	*Icor	*	*Iclars	*	*Iflt	*
*I"Cello e CB.	*	*I"Thalia	*	*I"Viola.	*	*I"Violino. 2do	*	*I"Violino. 1mo	*	*I"Corni in A.	*	*I"Clarinetti. in A.	*	*I"Flauto.	*
*I'vlc and cb	*	*I'[S]	*	*I'vla	*	*I'vl 2	*	*I'vl 1	*	*I'cor in A	*	*I'cl in A	*	*I'fl	*
*clefF4	*	*clefC1	*	*clefC3	*	*clefG2	*	*clefG2	*	*clefG2	*	*clefG2	*	*clefG2	*
*	*	*	*	*	*	*	*	*	*	*ITrd2c3	*	*ITrd2c3	*	*	*
*k[f#c#]	*	*k[f#c#]	*	*k[f#c#]	*	*k[f#c#]	*	*k[f#c#]	*	*k[f#c#]	*	*k[f#c#]	*	*k[f#c#]	*
*D:	*	*D:	*	*D:	*	*D:	*	*D:	*	*D:	*	*D:	*	*D:	*
*M6/8	*	*M6/8	*	*M6/8	*	*M6/8	*	*M6/8	*	*M6/8	*	*M6/8	*	*M6/8	*
*>[A,B,B1,B,B2,C]	*	*>[A,B,B1,B,B2,C]	*	*>[A,B,B1,B,B2,C]	*	*>[A,B,B1,B,B2,C]	*	*>[A,B,B1,B,B2,C]	*	*>[A,B,B1,B,B2,C]	*	*>[A,B,B1,B,B2,C]	*	*>[A,B,B1,B,B2,C]	*
=1	=1	=1	=1	=1	=1	=1	=1	=1	=1	=1	=1	=1	=1	=1	=1
!!!OMD: Allegretto.
*>A	*	*>A	*	*>A	*	*>A	*	*>A	*	*>A	*	*>A	*	*>A	*
*^	*	*	*	*	*	*	*	*	*	*	*	*	*	*	*
!LO:TX:a:i:t=Cello	!	!	!	!	!	!	!	!	!	!	!	!	!	!	!LO:TX:a:t=P:problem:w źródle kolejność i wysokość znaków przykluczowych - f# cc#	!
!	!	!	!LO:TX:a:t=P:problem:w źródle kolejność i wysokość znaków przykluczowych - f# cc#	!	!LO:TX:a:t=P:problem:w źródle kolejność i wysokość znaków przykluczowych - F# c#	!	!LO:TX:a:t=P:problem:w źródle kolejność i wysokość znaków przykluczowych - f# cc#	!	!LO:TX:a:t=P:problem:w źródle kolejność i wysokość znaków przykluczowych - f# cc#	!	!	!	!	!	!	!
16d\LL	2.rAA	.	2.r	.	16a\LL	.	16dd\LL	.	16ff#\LL	.	2.ryy	.	2.ryy	.	2.ryy	.
16d\J	.	.	.	.	16a\J	.	16dd\J	.	16ff#\J	.	.	.	.	.	.	.
8d\	.	.	.	.	8a\	.	8dd\	.	8ff#\	.	.	.	.	.	.	.
8A#X\J	.	.	.	.	8g\J	.	8cc#\J	.	8ee\J	.	.	.	.	.	.	.
16B\LL	.	.	.	.	16f#\LL	.	16b/LL	.	16dd\LL	.	.	.	.	.	.	.
16B\J	.	.	.	.	16f#\J	.	16b/J	.	16dd\J	.	.	.	.	.	.	.
8B\	.	.	.	.	8f#\	.	8b/	.	8dd\	.	.	.	.	.	.	.
8F#\J	.	.	.	.	8f#\J	.	8a/J	.	8cc#\J	.	.	.	.	.	.	.
=2	=2	=2	=2	=2	=2	=2	=2	=2	=2	=2	=2	=2	=2	=2	=2	=2
16G/LL	2.rAA	.	4r	.	16d\LL	.	16g/LL	.	16b/LL	.	2.ryy	.	2.ryy	.	2.ryy	.
16G/J	.	.	.	.	16d\J	.	16g/J	.	16b/J	.	.	.	.	.	.	.
8G/	.	.	.	.	8d\	.	8g/	.	8b'</	.	.	.	.	.	.	.
8D/J	.	.	8r	.	8d\J	.	8f#/J	.	8a/J	.	.	.	.	.	.	.
16BB/LL	.	.	4r	.	16d\LL	.	16fn/LL	.	16g#X/LL	.	.	.	.	.	.	.
16BB/J	.	.	.	.	16d\J	.	16f/J	.	16g#/J	.	.	.	.	.	.	.
8BB/	.	.	.	.	8d\	.	8f/	.	8g#/	.	.	.	.	.	.	.
8C#/J	.	.	8a\	Ein	8A\J	.	8e/J	.	8gn/J	.	.	.	.	.	.	.
=3	=3	=3	=3	=3	=3	=3	=3	=3	=3	=3	=3	=3	=3	=3	=3	=3
!	!	!	!	!	!	!	!	!	!LO:TX:a:i:t=A=	!	!	!	!	!	!	!
8D/	8D\	.	4f#/	Faun	8d\	.	8d/	.	8f#/	.	2.ryy	.	2.ryy	.	2.ryy	.
8r	8rEEyy	.	.	.	8r	.	8r	.	8r	.	.	.	.	.	.	.
8D/	8D\	.	8e/	ist	8c#\	.	8A/	.	8e/	.	.	.	.	.	.	.
8D/	8D\	.	4g/	traum,	8B/	.	8d/	.	8g/	.	.	.	.	.	.	.
8r	8rEEyy	.	.	.	8r	.	8r	.	8r	.	.	.	.	.	.	.
8D/	8D\	.	8f#/	ein	8A/	.	8d/	.	8f#/	.	.	.	.	.	.	.
=4	=4	=4	=4	=4	=4	=4	=4	=4	=4	=4	=4	=4	=4	=4	=4	=4
*rep	*rep	*	*	*	*	*	*	*	*	*	*	*	*	*	*	*
8D/	8D\	.	4a\	Faun	8F#/	.	8d/	.	8a/	.	2.ryy	.	2.ryy	.	2.ryy	.
8r	8rEEyy	.	.	.	8r	.	8r	.	8r	.	.	.	.	.	.	.
8D/	8D\	.	8g#X\	ist	8E#X/	.	8d/	.	8a#X/	.	.	.	.	.	.	.
8D/	8D\	.	4b\	traum	8G/	.	8d/	.	8b/	.	.	.	.	.	.	.
8r	8rEEyy	.	.	.	8r	.	8r	.	8r	.	.	.	.	.	.	.
8D/	8D\	.	8a\	im	8F#/	.	8d/	.	8a#/	.	.	.	.	.	.	.
*Xrep	*Xrep	*	*	*	*	*	*	*	*	*	*	*	*	*	*	*
=5	=5	=5	=5	=5	=5	=5	=5	=5	=5	=5	=5	=5	=5	=5	=5	=5
!	!	!LO:DY:b	!	!	!	!	!	!	!	!	!	!	!	!	!	!
8D/	8D\	sf	8dd\	glück-	8A\	sf	8d/	sf	8dd\	sf	2.ryy	.	2.ryy	.	2.ryy	.
8r	8rEEyy	.	8cc#\	-lichs-	8r	.	8r	.	8r	.	.	.	.	.	.	.
8D/	8D\	.	8b\	-ten	8r	.	8d/	.	8f#/	.	.	.	.	.	.	.
8D/	8D\	.	8a\	Zei-	4r	.	8d/	.	8f#/	.	.	.	.	.	.	.
8r	8rEEyy	.	8g\	-chen	.	.	8r	.	8r	.	.	.	.	.	.	.
8D/	8D\	.	8f#\	ge-	8d\	.	8d/	.	8f#/	.	.	.	.	.	.	.
!!LO:LB:g=original
=6	=6	=6	=6	=6	=6	=6	=6	=6	=6	=6	=6	=6	=6	=6	=6	=6
8AA/	8AA\	.	(>4a\	-bo-	[>4.e\	.	[<4.c#/	.	(<4a/	.	2.ryy	.	2.ryy	.	2.ryy	.
8r	8rEEyy	.	.	.	.	.	.	.	.	.	.	.	.	.	.	.
8AA/	8AA\	.	8g\)	.	.	.	.	.	8g/)	.	.	.	.	.	.	.
8AA/	8AA\	.	8e/	-ren,	4e\]	.	4c#/]	.	8e/	.	.	.	.	.	.	.
8r	8rEEyy	.	8r	.	.	.	.	.	8r	.	.	.	.	.	.	.
8r	8rEEyy	.	8a\	ein	8r	.	8r	.	8a'/	.	.	.	.	.	.	.
*v	*v	*	*	*	*	*	*	*	*	*	*	*	*	*	*	*
=7	=7	=7	=7	=7	=7	=7	=7	=7	=7	=7	=7	=7	=7	=7	=7
8D\	.	4f#/	Faun	8d\	.	8f#/	.	8f#/	.	2.ryy	.	2.ryy	.	2.ryy	.
8r	.	.	.	8r	.	8r	.	8r	.	.	.	.	.	.	.
8D\	.	8e/	ist	8c#\	.	8e/	.	8a/	.	.	.	.	.	.	.
8D\	.	4g/	traum	8B/	.	8a/	.	8dd\	.	.	.	.	.	.	.
8r	.	.	.	8r	.	8r	.	8r	.	.	.	.	.	.	.
8D\	.	8f#/	ein	8A/	.	8f#/	.	8dd\	.	.	.	.	.	.	.
=8	=8	=8	=8	=8	=8	=8	=8	=8	=8	=8	=8	=8	=8	=8	=8
*rep	*	*	*	*	*	*	*	*	*	*	*	*	*	*	*
8D\	.	4a\	Faun	8f#\	.	8d/	.	8a/	.	2.ryy	.	2.ryy	.	2.ryy	.
8r	.	.	.	8r	.	8r	.	8r	.	.	.	.	.	.	.
8D\	.	8g#X\	ist	8e#X\	.	8d/	.	8g#X/	.	.	.	.	.	.	.
8D\	.	4b\	traum	8g\	.	8d/	.	8b/	.	.	.	.	.	.	.
8r	.	.	.	8r	.	8r	.	8r	.	.	.	.	.	.	.
!	!	!	!	!	!	!	!	!LO:TX:a:i:t==B	!	!	!	!	!	!	!
8D\	.	8a\	im	8f#\	.	8d/	.	8a/	.	.	.	.	.	.	.
*Xrep	*	*	*	*	*	*	*	*	*	*	*	*	*	*	*
=9	=9	=9	=9	=9	=9	=9	=9	=9	=9	=9	=9	=9	=9	=9	=9
*^	*	*	*	*	*	*	*	*	*	*	*	*	*	*	*
!	!	!LO:DY:b	!	!	!	!	!	!	!	!	!	!	!	!	!	!
4D/	4D\	sf	8ff#\	glü-	4a 4d 4E\	sf	4ff# 4a 4d\	sf	4ff# 4a 4d\	sf	2.ryy	.	2.ryy	.	2.ryy	.
.	.	.	8ee\	-cklich-	.	.	.	.	.	.	.	.	.	.	.	.
8r	8rEEyy	.	8dd\	-sten	8r	.	8r	.	8r	.	.	.	.	.	.	.
!	!	!LO:DY:b	!	!	!	!LO:DY:b:rj	!	!LO:DY:b:rj	!	!LO:DY:b:rj	!	!	!	!	!	!
4.BB/	4.rEEyy	p	8dd\	Zei-	4.F#/	p	4.B/	p	4.d/	p	.	.	.	.	.	.
!	!	!	!	!	!	!	!	!	!	!	!	!LO:DY:b	!	!	!	!
.	.	.	8cc#\	-chen	.	.	.	.	.	.	.	pp	.	.	.	.
.	.	.	8b\	ge-	.	.	.	.	.	.	.	.	.	.	.	.
=10	=10	=10	=10	=10	=10	=10	=10	=10	=10	=10	=10	=10	=10	=10	=10	=10
*	*2\right	*	*	*	*	*	*	*	*	*	*	*	*	*	*	*
!	!	!	!	!	!	!	!LO:TX:a:i:t=Col 1mo	!	!	!	!	!	!	!	!	!
4F#/	[<2.FF#\	.	4.cc#\	-bo-	4A/	.	8c#'/Lyy	.	8c#'/L	.	[>2.cc# [<2.c#/	.	2.r	.	2.r	.
.	.	.	.	.	.	.	8f#'/yy	.	8f#'/	.	.	.	.	.	.	.
8r	.	.	.	.	8r	.	8a'/Jyy	.	8a'/J	.	.	.	.	.	.	.
*	*	*	*	*	*	*	*	*	*rep	*	*	*	*	*	*	*
4r	.	.	4f#/	-ren	4r	.	8c#'/Lyy	.	8c#'/L	.	.	.	.	.	.	.
.	.	.	.	.	.	.	8f#'/yy	.	8f#'/	.	.	.	.	.	.	.
8r	.	.	8r	.	8r	.	8a'/Jyy	.	8a'/J	.	.	.	.	.	.	.
*	*	*	*	*	*	*	*	*	*Xrep	*	*	*	*	*	*	*
=11	=11	=11	=11	=11	=11	=11	=11	=11	=11	=11	=11	=11	=11	=11	=11	=11
*	*	*	*	*	*	*	*	*	*	*	*	*	*^	*	*	*
!	!	!	!	!	!	!	!	!	!	!	!	!	!	!	!LO:DY:b:rj	!	!
4r	2.FF#\_<	.	2.r	.	4r	.	8c#/Lyy	.	8c#/L	.	2.cc#_> 2.c#/_<	.	(>8g#\L	2.re	p	8gg#X\L	p
.	.	.	.	.	.	.	8e#X/yy	.	8e#X/	.	.	.	8a\	.	.	8aa\	.
8r	.	.	.	.	8r	.	8b/Jyy	.	8b/J	.	.	.	8g#\J)	.	.	8gg#\J	.
*	*	*	*	*	*	*	*	*	*rep	*	*	*	*	*	*	*	*
!LO:TX:a:i:t=Cello	!	!LO:DY:b	!	!	!	!	!	!	!	!	!	!	!	!	!	!	!
8G#X/L	.	p	.	.	8G#X/L	p	8c#/Lyy	.	8c#/L	.	.	.	[>4.cc#\	.	.	[>4.ccc#\	.
8A/	.	.	.	.	8A/	.	8e#/yy	.	8e#/	.	.	.	.	.	.	.	.
8G#/J	.	.	.	.	8G#/J	.	8b/Jyy	.	8b/J	.	.	.	.	.	.	.	.
*	*	*	*	*	*	*	*	*	*Xrep	*	*	*	*	*	*	*	*
=12	=12	=12	=12	=12	=12	=12	=12	=12	=12	=12	=12	=12	=12	=12	=12	=12	=12
[>4.c#/	2.FF#\_<	.	2.r	.	[<4.c#/	.	8c#/Lyy	.	8c#/L	.	2.cc#_> 2.c#/_<	.	8cc#\L]	2.re	.	8ccc#\L]	.
.	.	.	.	.	.	.	8f#/yy	.	8f#/	.	.	.	8dd\	.	.	8ddd\	.
.	.	.	.	.	.	.	8a/Jyy	.	8a/J	.	.	.	8cc#\J	.	.	8ccc#\J	.
*	*	*	*	*	*	*	*	*	*rep	*	*	*	*	*	*	*	*
8c#/L]	.	.	.	.	8c#/L]	.	8c#/Lyy	.	8c#/L	.	.	.	[>4.ff#\	.	.	8fff#\	.
8d/	.	.	.	.	8d/	.	8f#/yy	.	8f#/	.	.	.	.	.	.	8r	.
8c#/J	.	.	.	.	8c#/J	.	8a/Jyy	.	8a/J	.	.	.	.	.	.	8ryy	.
*	*	*	*	*	*	*	*	*	*Xrep	*	*	*	*	*	*	*	*
=13	=13	=13	=13	=13	=13	=13	=13	=13	=13	=13	=13	=13	=13	=13	=13	=13	=13
[>2.C#/	2.FF#\_<	.	8g\	ist	4c#/	.	8c#'/Lyy	.	8c#'/L	.	2.cc#_> 2.c#/_<	.	8ff#\L]	2.re	.	2.r	.
.	.	.	8a\	sei-	.	.	8e#X'/yy	.	8e#X'/	.	.	.	8ee#X\	.	.	.	.
.	.	.	8g\	-ne	8c#/	.	8g'/Jyy	.	8g'/J	.	.	.	8ff#\J	.	.	.	.
*	*	*	*	*	*	*	*	*	*rep	*	*	*	*	*	*	*	*
.	.	.	4cc#\	Faun	4c#/	.	8c#'/Lyy	.	8c#'/L	.	.	.	8gg#\L	.	.	.	.
.	.	.	.	.	.	.	8e#'/yy	.	8e#'/	.	.	.	8ee#\	.	.	.	.
.	.	.	8cc#\	heit	8c#/	.	8g'/Jyy	.	8g'/J	.	.	.	8cc#\J	.	.	.	.
*	*	*	*	*	*	*	*	*	*Xrep	*	*	*	*	*	*	*	*
=14	=14	=14	=14	=14	=14	=14	=14	=14	=14	=14	=14	=14	=14	=14	=14	=14	=14
4C#/]	2.FF#\_>	.	8cc#\L	ein-	8c#'\L	.	8c#/L	.	8c#'/L	.	2.cc#_> 2.c#/_<	.	4.aa\	2.re	.	8ccc#\L	.
.	.	.	.	.	.	.	.	.	.	.	.	.	.	.	.	4qqeee	.
.	.	.	8dd\J	.	8f#'\	.	8f#/	.	8f#'/	.	.	.	.	.	.	8ddd\	.
8rGG	.	.	8cc#\	-ge-	8a'\J	.	8a/J	.	8a'/J	.	.	.	.	.	.	8ccc#\J	.
4rGG	.	.	8ff#\	-hüllt	8c#'\L	.	8c#/L	.	4cc#'/	.	.	.	4ff#\	.	.	[>4.ccc#\	.
.	.	.	8r	.	8f#'\	.	8f#/	.	.	.	.	.	.	.	.	.	.
8rGG	.	.	8cc#\	trägt	8a'\J	.	8a/J	.	8r	.	.	.	8r	.	.	.	.
*	*	*	*	*	*	*	*	*	*	*	*	*	*v	*v	*	*	*
!!LO:PB:g=original
=15	=15	=15	=15	=15	=15	=15	=15	=15	=15	=15	=15	=15	=15	=15	=15	=15
[>2.FF#/	2.FF#\_>	.	4cc#\	er	8c#\L	.	8c#/L	.	8g#X/L	.	2.cc#] [<2.c#/]	.	2.r	.	4.ccc#\_>	.
.	.	.	.	.	8e#X\	.	8e#X/	.	8a/	.	.	.	.	.	.	.
.	.	.	8cc#\	sein	8b\J	.	8b/J	.	8g#/J	.	.	.	.	.	.	.
*	*	*	*	*	*rep	*	*rep	*	*	*	*	*	*	*	*	*
.	.	.	4b\	Hörn-	8c#\L	.	8c#/L	.	[>4.cc#\	.	.	.	.	.	8ccc#\L]	.
.	.	.	.	.	8e#\	.	8e#/	.	.	.	.	.	.	.	8ddd\	.
.	.	.	8b\	-chen	8b\J	.	8b/J	.	.	.	.	.	.	.	8ccc#\J	.
*	*	*	*	*	*Xrep	*	*Xrep	*	*	*	*	*	*	*	*	*
=16	=16	=16	=16	=16	=16	=16	=16	=16	=16	=16	=16	=16	=16	=16	=16	=16
*	*	*	*	*	*	*	*	*	*	*	*^	*	*	*	*	*
2.FF#/]	2.FF#\]	.	4a\	ü-	8c#\L	.	8c#/L	.	8cc#\L]	.	4a/	4c#\]	.	2.r	.	[>4.aa\	.
.	.	.	.	.	8f#\	.	8f#/	.	8dd\	.	.	.	.	.	.	.	.
.	.	.	8g#X\	-ber-	8a\J	.	8a/J	.	8cc#\J	.	8r	8rAyy	.	.	.	.	.
*	*	*	*	*	*rep	*	*rep	*	*	*	*	*	*	*	*	*	*
.	.	.	4f#/	-gülst	8c#\L	.	8c#/L	.	[>4.ff#\	.	4r	4rAyy	.	.	.	8aa\L]	.
.	.	.	.	.	8f#\	.	8f#/	.	.	.	.	.	.	.	.	8bb\	.
.	.	.	8r	.	8a\J	.	8a/J	.	.	.	8r	8rAyy	.	.	.	8aa\J	.
*	*	*	*	*	*Xrep	*	*Xrep	*	*	*	*	*	*	*	*	*	*
*	*	*	*	*	*	*	*	*	*	*	*v	*v	*	*	*	*	*
=17	=17	=17	=17	=17	=17	=17	=17	=17	=17	=17	=17	=17	=17	=17	=17	=17
4BB/	4BB\	.	2.r	.	4d\	.	4f#/	.	8ff#\L]	.	2.r	.	2.r	.	4ddd\	.
.	.	.	.	.	.	.	.	.	8ee\	.	.	.	.	.	.	.
8r	8rEEyy	.	.	.	8r	.	8r	.	8dd\J	.	.	.	.	.	8r	.
.	.	.	.	.	.	.	.	.	8qee/	.	.	.	.	.	.	.
4E/	4E\	.	.	.	4B/	.	4g#X/	.	8dd\L	.	.	.	.	.	4r	.
!	!	!	!	!	!	!	!	!	!	!	!	!LO:DY:b	!	!LO:DY:b	!	!
.	.	.	.	.	.	.	.	.	8cc#\	.	.	p	.	p	.	.
8r	8rEEyy	.	.	.	8r	.	8r	.	8b\J	.	.	.	.	.	8r	.
=18	=18	=18	=18	=18	=18	=18	=18	=18	=18	=18	=18	=18	=18	=18	=18	=18
*	*	*	*	*	*	*	*	*	*	*	*	*	*^	*	*	*
4AA/	4AA\	.	4r	.	4c#\|	.	4a/|	.	(>8cc#\L	.	4e 4A/	.	8e/L	4c#\	.	(>8ee\L	.
.	.	.	.	.	.	.	.	.	8a\)	.	.	.	16a/L	.	.	16aa\L	.
.	.	.	.	.	.	.	.	.	.	.	.	.	16cc#/J	.	.	16ccc#\J	.
8r	8rEEyy	.	8r	.	8r	.	8r	.	8f#\J|	.	8e 8A/	.	8ff#/J	8c#\	.	8fff#\J)	.
4r	4rEEyy	.	8e/	trägt	4r	.	4r	.	4e/|	.	4e 4A/	.	4.ee/	4c#\	.	4.eee\	.
.	.	.	16a\LL	hoch	.	.	.	.	.	.	.	.	.	.	.	.	.
.	.	.	16cc#\JJ	.	.	.	.	.	.	.	.	.	.	.	.	.	.
8r	8rEEyy	.	8ff#\	em-	8r	.	8r	.	8r	.	8e 8A/	.	.	8c#\	.	.	.
*v	*v	*	*	*	*	*	*	*	*	*	*	*	*	*	*	*	*
=19	=19	=19	=19	=19	=19	=19	=19	=19	=19	=19	=19	=19	=19	=19	=19	=19
*	*	*	*	*	*	*	*	*	*	*	*	*rep	*rep	*	*rep	*
2.r	.	4.ee\	-por,	2.r	.	2.r	.	2.r	.	2.ryy	.	8e/L	4c#\	.	(>8ee\L	.
.	.	.	.	.	.	.	.	.	.	.	.	16a/L	.	.	16aa\L	.
.	.	.	.	.	.	.	.	.	.	.	.	16cc#/J	.	.	16ccc#\J	.
.	.	.	.	.	.	.	.	.	.	.	.	8ff#/J	8c#\	.	8fff#\J)	.
.	.	8e/	sein	.	.	.	.	.	.	.	.	[>4.ee/	4c#\	.	[>4.eee\	.
.	.	16a\LL	lan-	.	.	.	.	.	.	.	.	.	.	.	.	.
.	.	16cc#\JJ	.	.	.	.	.	.	.	.	.	.	.	.	.	.
.	.	8ff#\	-ges	.	.	.	.	.	.	.	.	.	8c#\	.	.	.
*	*	*	*	*	*	*	*	*	*	*	*	*Xrep	*Xrep	*	*Xrep	*
=20	=20	=20	=20	=20	=20	=20	=20	=20	=20	=20	=20	=20	=20	=20	=20	=20
*^	*	*	*	*	*	*	*	*	*	*	*	*	*	*	*	*
!	!	!	!	!	!	!LO:DY:rj	!	!LO:DY:rj	!	!	!	!	! 	!	!	!	!
16E/LL	4E\	.	8ee\L	Ohr	16b\LL	fp	16G#X/LL	fp	16dd\LL	fp	4e 4E/	.	4ee/]	4c#\	.	4eee\]	.
16E/J	.	.	.	.	16b\J	.	16G#/J	.	16dd\J	.	.	.	.	.	.	.	.
8E/	.	.	8dd\J	.	8b\	.	8G#/	.	8dd\	.	.	.	.	.	.	.	.
8F#/J	8r	.	8cc#\	u-	8a\J	.	8A/J	.	8cc#\J	.	8r	.	8r	8rAyy	.	8r	.
16G#X/LL	4E\	.	8cc#\	-spot-	16g#X\LL	.	16B/LL	.	16b/LL	.	4r	.	4r	8rAyy	.	4r	.
16G#/J	.	.	.	.	16g#\J	.	16B/J	.	16b/J	.	.	.	.	.	.	.	.
8G#/	.	.	8b\	-tet	8g#\	.	8B/	.	8b/	.	.	.	.	8rAyy	.	.	.
8A/J	8r	.	8a\	der	8f#\J	.	8c#/J	.	8a/J	.	8r	.	8r	8rAyy	.	8r	.
*	*	*	*	*	*	*	*	*	*	*	*	*	*v	*v	*	*	*
=21	=21	=21	=21	=21	=21	=21	=21	=21	=21	=21	=21	=21	=21	=21	=21	=21
*	*	*	*	*	*	*	*	*	*	*	*^	*	*	*	*	*
16B\LL	4E\	.	8g#X\	klei-	16e\LL	.	16d/LL	.	16g#X/LL	.	4r	2.re	.	2.r	.	2.r	.
16B\J	.	.	.	.	16e\J	.	16d/J	.	16g#/J	.	.	.	.	.	.	.	.
8B\	.	.	8g#\	-ne-	8e\	.	8d/	.	8g#/	.	.	.	.	.	.	.	.
8A\J	8r	.	8a\	-ren	8f#\J	.	8c#/J	.	8a/J	.	8r	.	.	.	.	.	.
*	*tremolo	*	*	*	*	*	*	*	*	*	*	*	*	*	*	*	*
8G#X/L	8E\L	.	4b\	Oh-	8g#X'\L	.	8B'/L	.	8b'/L	.	16e/LL	.	p	.	.	.	.
.	.	.	.	.	.	.	.	.	.	.	16e/JJ	.	.	.	.	.	.
!	!	!	!	!	!	!	!	!	!	!	!	!	!	!	!LO:DY:b	!	!LO:DY:b:t=p.
8F#/	8E\	.	.	.	8a'\	.	8A'/	.	8cc#'/	.	8e/	.	.	.	p	.	p
8E/J	8E\J	.	8e/	-ren	8b'\J	.	8G#X'/J	.	8dd'/J	.	8e/	.	.	.	.	.	.
*	*Xtremolo	*	*	*	*	*	*	*	*	*	*	*	*	*	*	*	*
*	*	*	*	*	*	*	*	*	*	*	*v	*v	*	*	*	*	*
=22	=22	=22	=22	=22	=22	=22	=22	=22	=22	=22	=22	=22	=22	=22	=22	=22
*	*	*	*	*	*	*	*	*	*	*	*	*	*^	*	*	*
4A/	4A\	.	4r	.	4e'\	.	4A'/	.	4cc#\|	.	4e 4A/	.	8e/L	4c#\	.	(>8ee\L	.
.	.	.	.	.	.	.	.	.	.	.	.	.	16a/L	.	.	16aa\L	.
.	.	.	.	.	.	.	.	.	.	.	.	.	16cc#/J	.	.	16ccc#\J	.
8rF	8rGGyy	.	8r	.	8r	.	8r	.	8r	.	8e 8A/	.	8ff#/J	8c#\	.	8fff#\J)	.
4rF	4rEEyy	.	8e/	trägt	4r	.	4r	.	4r	.	4e 4A/	.	4.ee/	4c#\	.	4.eee\	.
.	.	.	16a\LL	hoch	.	.	.	.	.	.	.	.	.	.	.	.	.
.	.	.	16cc#\JJ	.	.	.	.	.	.	.	.	.	.	.	.	.	.
8rF	8rEEyy	.	8ff#\	em-	8r	.	8r	.	8r	.	8e 8A/	.	.	8c#\	.	.	.
*v	*v	*	*	*	*	*	*	*	*	*	*	*	*	*	*	*	*
=23	=23	=23	=23	=23	=23	=23	=23	=23	=23	=23	=23	=23	=23	=23	=23	=23
*	*	*	*	*	*	*	*	*	*	*rep	*	*rep	*rep	*	*rep	*
2.r	.	4.ee\	-por,	2.r	.	2.r	.	2.r	.	4e 4A/	.	8e/L	4c#\	.	(>8ee\L	.
.	.	.	.	.	.	.	.	.	.	.	.	16a/L	.	.	16aa\L	.
.	.	.	.	.	.	.	.	.	.	.	.	16cc#/J	.	.	16ccc#\J	.
.	.	.	.	.	.	.	.	.	.	8e 8A/	.	8ff#/J	8c#\	.	8fff#\J)	.
.	.	8e/	sein	.	.	.	.	.	.	4e 4A/	.	4.ee/	4c#\	.	[>4.eee\	.
.	.	16a\LL	lan-	.	.	.	.	.	.	.	.	.	.	.	.	.
.	.	16cc#\JJ	.	.	.	.	.	.	.	.	.	.	.	.	.	.
.	.	8ff#\	-ger	.	.	.	.	.	.	8e 8A/	.	.	8c#\	.	.	.
*	*	*	*	*	*	*	*	*	*	*Xrep	*	*Xrep	*Xrep	*	*Xrep	*
*	*	*	*	*	*	*	*	*	*	*	*	*v	*v	*	*	*
!!LO:LB:g=original
=24	=24	=24	=24	=24	=24	=24	=24	=24	=24	=24	=24	=24	=24	=24	=24
!	!LO:DY:b:rj	!	!	!	!LO:DY:b:rj	!	!LO:DY:b:rj	!	!LO:DY:b:rj	!	!	!	!	!	!
16E/LL	fp	8ee\L	Ohr	16G#X/LL	fp	16b/LL	fp	16dd\LL	fp	[>2.e [<2.E/	.	4ee 4d\	.	4eee\]	.
16E/J	.	.	.	16G#/J	.	16b/J	.	16dd\J	.	.	.	.	.	.	.
8E/	.	8dd\J	.	8G#/	.	8b/	.	8dd\	.	.	.	.	.	.	.
8F#/J	.	8cc#\	u-	8A/J	.	8a/J	.	8cc#\J	.	.	.	8r	.	8r	.
16G#X/LL	.	8cc#\	-spot-	16B/LL	.	16g#X/LL	.	16b/LL	.	.	.	4r	.	4r	.
16G#/J	.	.	.	16B/J	.	16g#/J	.	16b/J	.	.	.	.	.	.	.
8G#/	.	8b\	-tet	8B/	.	8g#/	.	8b/	.	.	.	.	.	.	.
8A/J	.	8a\	u-	8c#/J	.	8f#/J	.	8a/J	.	.	.	8r	.	8r	.
=25	=25	=25	=25	=25	=25	=25	=25	=25	=25	=25	=25	=25	=25	=25	=25
16B/LL	.	8g#X\	-spot-	16d/LL	.	16e/LL	.	16g#X/LL	.	2.e] 2.E/]	.	2.r	.	2.r	.
16B/J	.	.	.	16d/J	.	16e/J	.	16g#/J	.	.	.	.	.	.	.
8B/	.	8g#\	-tet	8d/	.	8e/	.	8g#/	.	.	.	.	.	.	.
8A/J	.	8a\	der	8c#/J	.	8f#/J	.	8a/J	.	.	.	.	.	.	.
8G#X/L	.	8b\	klei-	8B/L	.	8g#X/L	.	8b\L	.	.	.	.	.	.	.
8F#/	.	8cc#\	-ne-	8A/	.	8a/	.	8cc#\	.	.	.	.	.	.	.
8E/J	.	8dd\	-ren	8G#X/J	.	8b/J	.	8dd\J	.	.	.	.	.	.	.
=26	=26	=26	=26	=26	=26	=26	=26	=26	=26	=26	=26	=26	=26	=26	=26
!	!LO:DY:b	!	!	!	!	!	!	!	!	!	!	!	!LO:DY:b	!	!
16A\LL	f	8cc#\	Oh-	16e\LL	.	16a/LL	f	16cc#\LL	f	4e 4A/	f	4r	f	4r	.
16A\J	.	.	.	16e\J	.	16a/J	.	16cc#\J	.	.	.	.	.	.	.
8A\	.	8a\	-ren	8e\	.	8a/	.	8cc#\	.	.	.	.	.	.	.
8F#\J	.	8r	.	8d\J	.	8a/J	.	8dd\J	.	8r	.	8dd 8a\	.	8ddd\	f
16G#X\LL	.	4r	.	16d\LL	.	16g#X/LL	.	16b\LL	.	4r	.	8b 8g#\	.	8bb\	.
16G#\J	.	.	.	16d\J	.	16g#/J	.	16b\J	.	.	.	.	.	.	.
8G#\	.	.	.	8d\	.	8g#/	.	8b\	.	.	.	8r	.	8r	.
8E#X\J	.	8r	.	8c#\J	.	8g#/J	.	8cc#\J	.	8r	.	8cc# 8g#\	.	8ccc#\	.
=27	=27	=27	=27	=27	=27	=27	=27	=27	=27	=27	=27	=27	=27	=27	=27
!	!	!	!	!	!LO:HP:a	!	!	!	!LO:HP:a	!	!	!	!LO:HP:b	!	!
16F#\LL	.	4r	.	16c#/LL	>	16f#/LL	.	16a/LL	>	2.ryy	.	8a 8f#/	>	8aa\	>
!	!LO:HP:b	!	!	!	!	!	!LO:HP:a	!	!	!	!	!	!	!	!
16F#\J	>	.	.	16c#/J	.	16f#/J	>	16a/J	.	.	.	.	.	.	.
8F#\	.	.	.	8c#/	.	8f#/	.	8a/	.	.	.	8r	.	8r	.
8D#X\J	.	8r	.	8B/J	.	8f#/J	.	8b/J	.	.	.	8b 8f#/	.	8bb\	.
16E\LL	.	4r	.	16B/LL	.	16e/LL	.	16g/LL	.	.	.	8g 8e/	.	8gg\	.
16E\J	]	.	.	16B/J	.	16e/J	.	16g/J	.	.	.	.	.	.	.
8E\	.	.	.	8B/	]	8e/	.	8g/	.	.	.	8r	]	8r	]
!	!	!	!	!	!	!	!	!	!	!	!	!	!LO:DY:b	!	!
8C#\J	.	8a/	Ein	8A/J	.	8e/J	]	8a/J	] p	.	.	8a 8e/	p	8aa\	p
=28	=28	=28	=28	=28	=28	=28	=28	=28	=28	=28	=28	=28	=28	=28	=28
*^	*	*	*	*	*	*	*	*	*	*	*	*	*	*	*
!LO:TX:t=P:problem:fragment zapisany odnośnikiem A=B	!	!	!	!	!LO:TX:t=P:problem:fragment zapisany odnośnikiem A=B	!	!LO:TX:t=P:problem:fragment zapisany odnośnikiem A=B	!	!LO:TX:t=P:problem:fragment zapisany odnośnikiem A=B	!	!	!	!	!	!	!
8D/yy	8D\	.	4f#/	.	8d\	.	8d/	.	8f#/	.	2.ryy	.	8a 8d/	.	8ff#\	.
8ryy	8rEEyy	.	.	.	8ryy	.	8ryy	.	8ryy	.	.	.	8r	.	8r	.
!	!	!	!	!	!LO:TX:a:i:t=Come sopra \nA=B.	!	!	!	!	!	!	!	!	!	!	!
8D/yy	8D\yy	.	8e/	.	8c#\yy	.	8A/yy	.	8e/yy	.	.	.	8r	.	8r	.
8D/yy	8D\yy	.	4g/	.	8B/yy	.	8d/yy	.	8g/yy	.	.	.	4r	.	4r	.
8ryy	8rEEyy	.	.	.	8ryy	.	8ryy	.	8ryy	.	.	.	.	.	.	.
8D/yy	8D\yy	.	8f#/	.	8A/yy	.	8d/yy	.	8f#/yy	.	.	.	8r	.	8r	.
=29	=29	=29	=29	=29	=29	=29	=29	=29	=29	=29	=29	=29	=29	=29	=29	=29
8D/yy	8D\yy	.	4a\	.	8F#/yy	.	8d/yy	.	8a/yy	.	2.ryy	.	2.ryy	.	2.ryy	.
8ryy	8rEEyy	.	.	.	8ryy	.	8ryy	.	8ryy	.	.	.	.	.	.	.
8D/yy	8D\yy	.	8g#X\	.	8E#X/yy	.	8d/yy	.	8a#X/yy	.	.	.	.	.	.	.
8D/yy	8D\yy	.	4b\	.	8G/yy	.	8d/yy	.	8b/yy	.	.	.	.	.	.	.
8ryy	8rEEyy	.	.	.	8ryy	.	8ryy	.	8ryy	.	.	.	.	.	.	.
8D/yy	8D\yy	.	8a\	.	8F#/yy	.	8d/yy	.	8a#/yy	.	.	.	.	.	.	.
=30	=30	=30	=30	=30	=30	=30	=30	=30	=30	=30	=30	=30	=30	=30	=30	=30
8D/yy	8D\yy	sf	8dd\	.	8A\yy	sf	8d/yy	sf	8dd\yy	sf	2.ryy	.	2.ryy	.	2.ryy	.
8ryy	8rEEyy	.	8cc#\	.	8ryy	.	8ryy	.	8ryy	.	.	.	.	.	.	.
8D/yy	8D\yy	.	8b\	.	8ryy	.	8d/yy	.	8f#/yy	.	.	.	.	.	.	.
8D/yy	8D\yy	.	8a\	.	4ryy	.	8d/yy	.	8f#/yy	.	.	.	.	.	.	.
8ryy	8rEEyy	.	8g\	.	.	.	8ryy	.	8ryy	.	.	.	.	.	.	.
8D/yy	8D\yy	.	8f#\	.	8d\yy	.	8d/yy	.	8f#/yy	.	.	.	.	.	.	.
=31	=31	=31	=31	=31	=31	=31	=31	=31	=31	=31	=31	=31	=31	=31	=31	=31
8AA/yy	8AA\yy	.	(<4a/	.	[y>4.e\yy	.	[y<4.c#/yy	.	(y<4a/yy	.	2.ryy	.	2.ryy	.	2.ryy	.
8ryy	8rEEyy	.	.	.	.	.	.	.	.	.	.	.	.	.	.	.
8AA/yy	8AA\yy	.	8g/)	.	.	.	.	.	8g/)yy	.	.	.	.	.	.	.
8AA/yy	8AA\yy	.	8e/	.	4e\]yy	.	4c#/]yy	.	8e/yy	.	.	.	.	.	.	.
8ryy	8rEEyy	.	8r	.	.	.	.	.	8ryy	.	.	.	.	.	.	.
8ryy	8rEEyy	.	8a\	.	8ryy	.	8ryy	.	8a'/yy	.	.	.	.	.	.	.
*v	*v	*	*	*	*	*	*	*	*	*	*	*	*	*	*	*
=32	=32	=32	=32	=32	=32	=32	=32	=32	=32	=32	=32	=32	=32	=32	=32
8D\yy	.	4f#/	.	8d\yy	.	8f#/yy	.	8f#/yy	.	2.ryy	.	2.ryy	.	2.ryy	.
8ryy	.	.	.	8ryy	.	8ryy	.	8ryy	.	.	.	.	.	.	.
8D\yy	.	8e/	.	8c#\yy	.	8e/yy	.	8a/yy	.	.	.	.	.	.	.
8D\yy	.	4g/	.	8B/yy	.	8a/yy	.	8dd\yy	.	.	.	.	.	.	.
8ryy	.	.	.	8ryy	.	8ryy	.	8ryy	.	.	.	.	.	.	.
8D\yy	.	8f#/	.	8A/yy	.	8f#/yy	.	8dd\yy	.	.	.	.	.	.	.
!!LO:PB:g=original
=33	=33	=33	=33	=33	=33	=33	=33	=33	=33	=33	=33	=33	=33	=33	=33
8D\yy	.	4a\	.	8f#\yy	.	8d/yy	.	8a/yy	.	2.ryy	.	2.ryy	.	2.ryy	.
8ryy	.	.	.	8ryy	.	8ryy	.	8ryy	.	.	.	.	.	.	.
8D\yy	.	8g#X\	.	8e#X\yy	.	8d/yy	.	8g#X/yy	.	.	.	.	.	.	.
8D\yy	.	4b\	.	8g\yy	.	8d/yy	.	8b/yy	.	.	.	.	.	.	.
8ryy	.	.	.	8ryy	.	8ryy	.	8ryy	.	.	.	.	.	.	.
!	!	!	!	!	!	!	!	!LO:TX:a:i:t==B	!	!	!	!	!	!	!
8D\yy	.	8a\	.	8f#\yy	sf	8d/yy	sf	8a/yy	sf	.	.	.	.	.	.
=34	=34	=34	=34	=34	=34	=34	=34	=34	=34	=34	=34	=34	=34	=34	=34
!	!LO:DY:b	!	!	!	!	!	!	!	!	!	!	!	!	!	!
4D\	sf	8ff#\L	.	4a 4d\	.	4ff# 4a 4d\	.	4ff# 4a 4d\	.	2.ryy	.	2.ryy	.	2.ryy	.
.	.	8ee\J	.	.	.	.	.	.	.	.	.	.	.	.	.
8r	.	8a\	.	8r	.	8r	.	8r	.	.	.	.	.	.	.
!	!LO:DY:b	!	!	!	!LO:DY:b:rj	!	!LO:DY:b:rj	!	!LO:DY:b:rj	!	!	!	!	!	!
4.AA/	p	16cc#\LL	.	4.A/	p	4.e/	p	4.g/	p	.	.	.	.	.	.
.	.	16b\JJ	.	.	.	.	.	.	.	.	.	.	.	.	.
.	.	16a\LL	.	.	.	.	.	.	.	.	.	.	.	.	.
.	.	16g\JJ	.	.	.	.	.	.	.	.	.	.	.	.	.
.	.	16f#/LL	.	.	.	.	.	.	.	.	.	.	.	.	.
.	.	16e/JJ	.	.	.	.	.	.	.	.	.	.	.	.	.
=35	=35	=35	=35	=35	=35	=35	=35	=35	=35	=35	=35	=35	=35	=35	=35
*	*	*	*	*	*	*	*	*	*	*	*	*^	*	*	*
*	*	*	*	*	*	*	*	*	*	*	*	*	*2\right	*	*	*
!LO:TX:t=P:problem:mixed beam	!	!	!	!	!	!	!	!	!	!	!	!	!	!	!	!
!LO:TX:b:i:t=pizzi.	!	!	!	!	!	!	!	!	!	!	!	!	!	!	!	!
8D'\L	.	8d/	.	8A'/	.	8d'/	.	8f#/|	.	[>2.a [<2.A/	.	4rff	2.f#\	.	16dd\LL	.
.	.	.	.	.	.	.	.	.	.	.	.	.	.	.	16ee\	.
8F#'\	.	8r	.	16A/LL	.	16d/LL	.	16f#/LL	.	.	.	.	.	.	16ff#\	.
.	.	.	.	16A/J	.	16d/J	.	16f#/JJ	.	.	.	.	.	.	16gg\	.
8AA'/J	.	8a\	Ein	8A/J	.	8d/J	.	8f#/	.	.	.	8r	.	.	16aa\	.
.	.	.	.	.	.	.	.	.	.	.	.	.	.	.	16bb\JJ	.
*rep	*	*	*	*	*	*	*	*	*	*	*	*	*	*	*	*
!LO:TX:t=P:problem:mixed beam	!	!	!	!	!	!	!	!	!	!	!	!	!	!	!	!
8D'\L	.	[>4.a\	Faun,	8r	.	8r	.	8r	.	.	.	16a\LL	.	.	[>4.aa\	.
.	.	.	.	.	.	.	.	.	.	.	.	16b\	.	.	.	.
8F#'\	.	.	.	16A/LL	.	16d/LL	.	16f#/LL	.	.	.	16cc#\	.	.	.	.
.	.	.	.	16A/J	.	16d/J	.	16f#/JJ	.	.	.	16dd\	.	.	.	.
8AA'/J	.	.	.	8A/J	.	8d/J	.	8f#/	.	.	.	16ee\	.	.	.	.
.	.	.	.	.	.	.	.	.	.	.	.	16ff#\JJ	.	.	.	.
*Xrep	*	*	*	*	*	*	*	*	*	*	*	*	*	*	*	*
=36!|:	=36!|:	=36!|:	=36!|:	=36!|:	=36!|:	=36!|:	=36!|:	=36!|:	=36!|:	=36!|:	=36!|:	=36!|:	=36!|:	=36!|:	=36!|:	=36!|:
*>B	*	*>B	*	*>B	*	*>B	*	*>B	*	*>B	*	*>B	*>B	*	*>B	*
!LO:TX:t=P:problem:mixed beam	!	!	!	!	!	!	!	!	!	!	!	!	!	!	!	!
8C#'\L	.	8a\]	.	8r	.	8r	.	8r	.	2.a] 2.A/]	.	(<16gg\LL	2.g\	.	16aa\LL]	.
.	.	.	.	.	.	.	.	.	.	.	.	(>16ff#\	.	.	(>16bb\	.
8E\	.	8r	.	16A/LL	.	16e/LL	.	16g/LL	.	.	.	16ee\	.	.	16ccc#\	.
.	.	.	.	16A/J	.	16e/J	.	16g/J	.	.	.	16dd\	.	.	16ddd\	.
8AA/J	.	[>8a\	ein	8A/J	.	8e/J	.	8g/J	.	.	.	16cc#\	.	.	16eee\	.
.	.	.	.	.	.	.	.	.	.	.	.	16b\JJ))	.	.	16fff#\JJ)	.
*rep	*	*	*	*	*	*	*	*	*	*	*	*	*	*	*	*
!LO:TX:t=P:problem:mixed beam	!	!	!	!	!	!	!	!	!	!	!	!	!	!	!	!
8C#'\L	.	16a\LL]	Faun	8r	.	8r	.	8r	.	.	.	4.a\	.	.	(>4.ggg\	.
.	.	16b\	.	.	.	.	.	.	.	.	.	.	.	.	.	.
8E\	.	16cc#\	.	16A/LL	.	16e/LL	.	16g/LL	.	.	.	.	.	.	.	.
.	.	16dd\	.	16A/J	.	16e/J	.	16g/J	.	.	.	.	.	.	.	.
8AA/J	.	(>16ee\	ist	8A/J	.	8e/J	.	8g/J	.	.	.	.	.	.	.	.
.	.	16ee#X\JJ)	.	.	.	.	.	.	.	.	.	.	.	.	.	.
*Xrep	*	*	*	*	*	*	*	*	*	*	*	*	*	*	*	*
*	*	*	*	*	*	*	*	*	*	*	*	*v	*v	*	*	*
=37	=37	=37	=37	=37	=37	=37	=37	=37	=37	=37	=37	=37	=37	=37	=37
4D\	.	8.ff#\L	traum,	8D/L	.	8r	.	8r	.	4a 4A/	.	4a 4f#\	.	16fff#\LL)	.
.	.	.	.	.	.	.	.	.	.	.	.	.	.	16ggg\	.
.	.	.	.	8F#/	.	16d/LL	.	16f#\LL	.	.	.	.	.	16fff#\	.
.	.	16ee\Jk	.	.	.	16d/J	.	16f#\J	.	.	.	.	.	16eee\	.
8r	.	16dd\LL	im	8D/J	.	8f#/J	.	8dd\J	.	8r	.	8r	.	16ddd\	.
.	.	16cc#\JJ	.	.	.	.	.	.	.	.	.	.	.	16ccc#\JJ	.
4B\	.	8.b\	glück-	8B\L	.	8r	.	8r	.	4r	.	4r	.	16bb\LL	.
.	.	.	.	.	.	.	.	.	.	.	.	.	.	16ccc#\	.
.	.	.	.	8d\	.	16d/LL	.	16f#\LL	.	.	.	.	.	16bb\	.
.	.	16b\	-lich-	.	.	16d/J	.	16f#\J	.	.	.	.	.	16aa\	.
8r	.	8b\	-sten	8B\J	.	8f#/J	.	8dd\J	.	8r	.	8r	.	16gg\	.
.	.	.	.	.	.	.	.	.	.	.	.	.	.	16ff#\JJ	.
=38	=38	=38	=38	=38	=38	=38	=38	=38	=38	=38	=38	=38	=38	=38	=38
*	*	*	*	*	*	*	*	*	*	*	*	*^	*	*	*
4G\	.	8ee\L	Zei-	8G/L	.	8r	.	8r	.	2.r	.	16ee/LL	2.re	.	8ee'\	.
.	.	.	.	.	.	.	.	.	.	.	.	16ff#/	.	.	.	.
.	.	16ee\L	-chen	8B/	.	16d/LL	.	16e\LL	.	.	.	16ee/	.	.	8r	.
.	.	16dd\JJ	.	.	.	16d/J	.	16e\J	.	.	.	16dd/	.	.	.	.
8r	.	16cc#\LL	ge-	8G/J	.	8d/J	.	8dd\J	.	.	.	16cc#/	.	.	8r	.
.	.	16b\JJ	.	.	.	.	.	.	.	.	.	16b/JJ	.	.	.	.
4A\	.	[>4.a\	-bo-	8A/L	.	8r	.	8r	.	.	.	16a/LL	.	.	4r	.
.	.	.	.	.	.	.	.	.	.	.	.	16b/	.	.	.	.
.	.	.	.	8A/	.	16c#/LL	.	16e\LL	.	.	.	16a/	.	.	.	.
.	.	.	.	.	.	16c#/J	.	16e\J	.	.	.	16g/	.	.	.	.
8r	.	.	.	8A/J	.	8c#/J	.	8a\J	.	.	.	16f#/	.	.	8r	.
.	.	.	.	.	.	.	.	.	.	.	.	16e/JJ	.	.	.	.
!!LO:LB:g=original
=39	=39	=39	=39	=39	=39	=39	=39	=39	=39	=39	=39	=39	=39	=39	=39	=39
!!LO:TX:b:t=1ma
*>B1	*	*>B1	*	*>B1	*	*>B1	*	*>B1	*	*>B1	*	*>B1	*>B1	*	*>B1	*
!LO:TX:t=P:problem:mixed beam	!	!	!	!	!	!	!	!	!	!	!	!	!	!	!	!
!LO:TX:b:t=P:problem:w źródle nazwa volty zapisana pod pięciolinią	!	!	!	!	!	!	!	!	!	!	!	!	!	!	!	!
8D'\L	.	8a\]	-ren,	8r	.	8r	.	8r	.	[>2.a [<2.A/	.	4d/	2.f#\	.	16dd\LL	.
.	.	.	.	.	.	.	.	.	.	.	.	.	.	.	16ee\	.
8F#'\	.	8r	.	16A/LL	.	16d/LL	.	16f#/LL	.	.	.	.	.	.	16ff#\	.
.	.	.	.	16A/J	.	16d/J	.	16f#/J	.	.	.	.	.	.	16gg\	.
8AA'/J	.	8a\	ein	8A/J	.	8d/J	.	8f#/J	.	.	.	8r	.	.	16aa\	.
.	.	.	.	.	.	.	.	.	.	.	.	.	.	.	16bb\JJ	.
*rep	*	*	*	*	*	*	*	*	*	*	*	*	*	*	*	*
!LO:TX:t=P:problem:mixed beam	!	!	!	!	!	!	!	!	!	!	!	!	!	!	!	!
8D'\L	.	4.a\	Faun,	8r	.	8r	.	8r	.	.	.	16a/LL	.	.	4.aa\	.
.	.	.	.	.	.	.	.	.	.	.	.	16b/	.	.	.	.
8F#'\	.	.	.	16A/LL	.	16d/LL	.	16f#/LL	.	.	.	16cc#/	.	.	.	.
.	.	.	.	16A/J	.	16d/J	.	16f#/J	.	.	.	16dd/	.	.	.	.
8AA'/J	.	.	.	8A/J	.	8d/J	.	8f#/J	.	.	.	16ee/	.	.	.	.
.	.	.	.	.	.	.	.	.	.	.	.	16ff#/JJ	.	.	.	.
*Xrep	*	*	*	*	*	*	*	*	*	*	*	*	*	*	*	*
*	*	*	*	*	*	*	*	*	*	*	*	*v	*v	*	*	*
=40:|!	=40:|!	=40:|!	=40:|!	=40:|!	=40:|!	=40:|!	=40:|!	=40:|!	=40:|!	=40:|!	=40:|!	=40:|!	=40:|!	=40:|!	=40:|!
!!LO:TX:b:t=2da
*>B2	*	*>B2	*	*>B2	*	*>B2	*	*>B2	*	*>B2	*	*>B2	*	*>B2	*
!LO:TX:b:t=P:problem:w źródle nazwa volty zapisana pod pięciolinią	!	!	!	!	!	!	!	!	!	!	!	!	!	!	!
4D\	.	8d/	ren	8F#/	.	8d'/	.	8d/	.	4r	.	4d/	.	4r	.
.	.	8r	.	8r	.	8r	.	8r	.	.	.	.	.	.	.
8r	.	8r	.	8r	.	8r	.	8r	.	8a 8A/	.	8r	.	8r	.
4r	.	4r	.	4r	.	4r	.	4r	.	[>4.a [<4.A/	.	4r	.	4r	.
8r	.	8a\	im	8r	.	8r	.	8r	.	.	.	8cc# 8e'\	.	8gg'\	.
=41	=41	=41	=41	=41	=41	=41	=41	=41	=41	=41	=41	=41	=41	=41	=41
*>C	*	*>C	*	*>C	*	*>C	*	*>C	*	*>C	*	*>C	*	*>C	*
4r	.	8.dd\	glück-	4r	.	4r	.	4r	.	8a] 8A/]	.	4dd 4d\	.	4ff#\	.
.	.	.	.	.	.	.	.	.	.	8r	.	.	.	.	.
.	.	16cc#\	-lich-	.	.	.	.	.	.	.	.	.	.	.	.
8r	.	8b\	-sten	8r	.	8r	.	8r	.	8a 8A/	.	8r	.	8r	.
!	!	!	!	!LO:TX:b:i:t=pizzi.	!	!LO:TX:b:i:t=pizzi.	!	!LO:TX:b:i:t=pizzi.	!	!	!	!	!	!	!
4r	.	8aM\	Zei-	4r	.	4r	.	4r	.	[>4.a [<4.A/	.	4r	.	4r	.
.	.	8qcc#/	.	.	.	.	.	.	.	.	.	.	.	.	.
.	.	8b\	-chen	.	.	.	.	.	.	.	.	.	.	.	.
8AA'/	.	8a\	ge-	8E'/	.	8c#'/	.	8g'/	.	.	.	8r	.	8r	.
=42	=42	=42	=42	=42	=42	=42	=42	=42	=42	=42	=42	=42	=42	=42	=42
4D\	.	(<4.aT\	-bo-	4D'/	.	4d'/	.	4f#'/	.	4a] 4A/]	.	4r	.	4r	.
8r	.	.	.	8r	.	8r	.	8r	.	8r	.	8r	.	8r	.
4r;	.	4f#;>/)	-ren.	4r;>	.	4r;>	.	4r;>	.	4r;>	.	4a 4d;>/	.	4ff#;>\	.
8r	.	8r	.	8r	.	8r	.	8r	.	8r	.	8r	.	8r	.
==	==	==	==	==	==	==	==	==	==	==	==	==	==	==	==
*-	*-	*-	*-	*-	*-	*-	*-	*-	*-	*-	*-	*-	*-	*-	*-
!!!system-decoration: [(s1,s2,s3,s4,s5,s6,s7,s8)]
!!!RDF**kern: | = vertical stroke
!!!RDF**kern: > = above
!!!RDF**kern: < = below
!!!ENC: Mateusz Solarz
!!!END: 2021-08-06
!!!EED: Antoni Szymański
!!!EST: 2021-09-05
